X:1
T:Title
%%score { ( 1 4 5 ) | ( 2 3 ) }
L:1/8
M:3/4
K:Bb
V:1 treble nm="Grand Piano"
V:4 treble 
V:5 treble 
V:2 treble 
V:3 treble 
V:1
 z2 z2[Q:1/4=108] BA | [DG]2 D2 BA | [DG]2 D2 BA | [DG]2 D2 .B2 | z2 z2 cB | [^FA]2 D2 cB | %6
 [^FA]2 D2 cB | A^F A2 F2 | z2 z2 dc | [GB]2 [^FA]2 dc | [GB]2 [^FA]2 ed | [Ac]2 [GB]2 .A2 | %12
 z2 z2 AB | [Ac]2 [Ac]2 cd | [ce]2 B2 dc | [GB]2 [^FA]2 .A2 | z2 z2 BA | [DG]2 D2 BA | %18
 [DG]2 D2 dc | [GB]2 [^FA]2 GF |[M:2/4] G4 |] %21
V:2
 z2 z2 G^F | G,,2 z2[K:treble] G^F | G,,2 z2[K:treble] G^F | G,,2 z2[K:treble] GG | %4
 D,,2 z2[K:treble] AG | D,2 z2[K:treble] AG | A,,2 z2[K:treble] AG | z2 ^F2 z2 | %8
 G,,2 z2[K:treble] BA | [D,G,B,]2 z2[K:treble] BA | [D,G,B,]2 z2[K:treble] cB | %11
 C,2 z2[K:treble] ^FG | D,2 z2[K:treble] ^FG | D,2 z2[K:treble] AB | [E,G,C]2 z2[K:treble] BA | %15
 [D,G,B,]2 z2[K:treble] ^FG | D,2 z2[K:treble] G^F | G,,2 z2[K:treble] G^F | G,,2 z2[K:treble] BA | %19
 [D,G,B,]2 [D,^F,A,C]4 |[M:2/4] [D,G,B,D]4 |] %21
V:3
 x6 | z2 [D,G,B,]4[K:treble] | z2 [D,G,B,]4[K:treble] | z2 [D,G,B,]4[K:treble] | z2 D,4[K:treble] | %5
 z2 [^F,A,C]4[K:treble] | z2 [D,^F,A,C]4[K:treble] | D,2 [^F,A,C]4 | z2 D,4[K:treble] | %9
 z2 [D,^F,A,C]4[K:treble] | z2 [D,^F,A,C]4[K:treble] | z2 [E,G,C]4[K:treble] | z2 ^F,4[K:treble] | %13
 z2 [^F,A,C]4[K:treble] | z2 [D,G,B,]4[K:treble] | z2 [D,^F,A,C]4[K:treble] | z2 ^F,4[K:treble] | %17
 z2 [D,G,B,]4[K:treble] | z2 [D,G,B,]4[K:treble] | x6 |[M:2/4] x4 |] %21
V:4
 x6 | x6 | x6 | x6 | [^FA]4 z2 | x6 | x6 | x6 | [DG]4 z2 | x6 | x6 | x6 | [^FA]4 z2 | x6 | x6 | %15
 x6 | [^FA]4 z2 | x6 | x6 | x6 |[M:2/4] x4 |] %21
V:5
 x6 | x6 | x6 | x6 | z2 [^F,A,C]4 | x6 | x6 | x6 | z2 [G,B,]4 | x6 | x6 | x6 | z2 [A,C]4 | x6 | %14
 x6 | x6 | z2 [A,C]4 | x6 | x6 | x6 |[M:2/4] x4 |] %21

